X:663
T: "Lilliput"
N: Z1344
O: Europa, Mitteleuropa, Oesterreich
R: Zech -, Schalks - Lied
M: 3/4
L: 1/8
K: G
D2 | DGG3F | Ecc3
a | gfedcF | G2BD
G2 | DGG3F | Ecc3
a | gfedcF | G4

@@@ Tune index: 10421
